build/img/puzzle-icon.svg

<svg width="16" height="16" viewBox="0 0 16 16" fill="none" xmlns="http://www.w3.org/2000/svg">
<path d="M10.6382 3.88374L10.6371 3.88544C10.5535 4.02755 10.5777 4.19493 10.6471 4.31761C10.7166 4.44053 10.8479 4.54783 11.015 4.54783H14.2522V7.26258C14.0032 7.16271 13.735 7.09784 13.4457 7.09784C12.1751 7.09784 11.1435 8.12939 11.1435 9.4C11.1435 10.6706 12.1751 11.7022 13.4457 11.7022C13.7357 11.7022 14.0041 11.6334 14.2522 11.5325V14.2522H4.54783V11.015C4.54783 10.849 4.44314 10.7177 4.32164 10.6471C4.20057 10.5768 4.03538 10.5509 3.89335 10.6303L3.89333 10.6302L3.8904 10.632C3.67729 10.7588 3.44019 10.8293 3.17717 10.8293C2.38607 10.8293 1.74783 10.196 1.74783 9.4C1.74783 8.60397 2.38607 7.97067 3.17717 7.97067C3.44189 7.97067 3.67876 8.03656 3.8904 8.16253L3.89037 8.16257L3.89335 8.16424C4.03531 8.24357 4.20029 8.21765 4.32105 8.14839C4.44184 8.07912 4.54783 7.94939 4.54783 7.78504V4.54783H7.78504C7.95206 4.54783 8.08344 4.44053 8.15292 4.31761C8.22226 4.19492 8.24645 4.02755 8.16286 3.88544L8.16287 3.88543L8.16184 3.88374C8.03667 3.67846 7.97067 3.44214 7.97067 3.17717C7.97067 2.38607 8.60397 1.74783 9.4 1.74783C10.196 1.74783 10.8293 2.38607 10.8293 3.17717C10.8293 3.44214 10.7633 3.67846 10.6382 3.88374ZM9.4 0.875C8.12918 0.875 7.09784 1.91227 7.09784 3.17717C7.09784 3.35229 7.12067 3.51686 7.15842 3.675H4.10866C3.99013 3.675 3.88247 3.72954 3.806 3.806C3.72954 3.88247 3.675 3.99013 3.675 4.10866V7.15842C3.51686 7.12067 3.35229 7.09784 3.17717 7.09784C1.91227 7.09784 0.875 8.12918 0.875 9.4C0.875 10.6708 1.91227 11.7022 3.17717 11.7022C3.35229 11.7022 3.51686 11.6793 3.675 11.6416V14.6913C3.675 14.8099 3.72954 14.9175 3.806 14.994C3.88247 15.0705 3.99013 15.125 4.10866 15.125H14.6913C14.8099 15.125 14.9175 15.0705 14.994 14.994C15.0705 14.9175 15.125 14.8099 15.125 14.6913V10.789C15.125 10.6209 15.0266 10.4591 14.8694 10.3884C14.7143 10.3186 14.523 10.3484 14.3975 10.4653C14.1442 10.6929 13.8103 10.8293 13.4457 10.8293C12.6494 10.8293 12.0163 10.1963 12.0163 9.4C12.0163 8.60368 12.6494 7.97067 13.4457 7.97067C13.8115 7.97067 14.1451 8.10245 14.3974 8.32918C14.5224 8.44556 14.7081 8.47623 14.8639 8.40612C15.0164 8.33748 15.125 8.17872 15.125 8.01102V4.10866C15.125 3.99013 15.0705 3.88247 14.994 3.806C14.9175 3.72954 14.8099 3.675 14.6913 3.675H11.6416C11.6793 3.51686 11.7022 3.35229 11.7022 3.17717C11.7022 1.91227 10.6708 0.875 9.4 0.875Z" fill="white" stroke="white" stroke-width="0.25"/>
</svg>

<svg width="16" height="16" fill="none" xmlns="http://www.w3.org/2000/svg"><path d="M10.638 3.884v.001a.435.435 0 00.01.433c.069.123.2.23.367.23h3.237v2.715a2.152 2.152 0 00-.806-.165 2.303 2.303 0 000 4.604c.29 0 .558-.069.806-.17v2.72H4.548v-3.237a.434.434 0 00-.226-.368.435.435 0 00-.429-.017h0l-.003.002A1.424 1.424 0 011.747 9.4 1.426 1.426 0 013.89 8.163h0l.003.001c.142.08.307.054.428-.016a.429.429 0 00.227-.363V4.548h3.237a.432.432 0 00.368-.23.435.435 0 00.01-.433h0l-.001-.001a1.334 1.334 0 01-.191-.707c0-.79.633-1.43 1.429-1.43a1.426 1.426 0 011.238 2.137zM9.4.875a2.307 2.307 0 00-2.302 2.302c0 .175.023.34.06.498h-3.05a.433.433 0 00-.302.131.433.433 0 00-.131.303v3.05a2.128 2.128 0 00-.498-.061A2.307 2.307 0 00.875 9.4a2.307 2.307 0 002.302 2.302c.175 0 .34-.023.498-.06v3.05c0 .118.055.226.131.302a.433.433 0 00.303.131H14.69a.433.433 0 00.303-.131.433.433 0 00.131-.303V10.79a.442.442 0 00-.256-.4.439.439 0 00-.471.076 1.419 1.419 0 01-.952.364 1.42 1.42 0 01-1.43-1.429c0-.796.633-1.43 1.43-1.43.366 0 .7.132.951.36a.43.43 0 00.467.076.445.445 0 00.261-.395V4.109a.433.433 0 00-.131-.303.433.433 0 00-.303-.131h-3.05a2.13 2.13 0 00.061-.498A2.307 2.307 0 009.4.875z" fill="#fff" stroke="#fff" stroke-width=".25"/></svg>
